X: 50
T:King William's March. JaW.050
T:Shore's Maggot.or. JaW.050
M:6/8
Q:110
C:"..or Shore's Maggot..Country Dance"
S:James Winder Ms, Lancashire, 1835-41
R:"Country Dance"
O:England
A:Wyresdale,Lancashire
N:Shore - a family of King's trumpeters late 17th, early 18th C, as is
N:the convention of showing D major as top F,Bottom F, and C all sharp,
N:equals three sharps. William = of Orange.CGP
H:1/8
Z:vmp.Chris Partington, Aug 2004
K:D
A|AFA AFA|AFA A2A|dAd dAd|dAd d2d|!
fga efg|fga efg|fga a2g|a3-a2:|!
|:a|fdd gee|fdd gee|fdd g2f|e3-e2f/g/|!
a2z g2z|f2z e2z|f2z g2z|f2z e2a|!
fad eAa|fad eAa|fed e2c|d3 d2:|]
